public/vectors/social-linkedin.svg

<?xml version="1.0" encoding="UTF-8"?>
<svg width="24px" height="22px" viewBox="0 0 24 22" version="1.1" xmlns="http://www.w3.org/2000/svg" xmlns:xlink="http://www.w3.org/1999/xlink">
    <!-- Generator: Sketch 58 (84663) - https://sketch.com -->
    <title>LinkedIn</title>
    <desc>Created with Sketch.</desc>
    <g id="Symbols" stroke="none" stroke-width="1" fill="none" fill-rule="evenodd">
        <g id="Social-Stack-/-Dark-/-Desktop" transform="translate(0.000000, -112.000000)" fill="#181820">
            <g id="Social-/-LinkedIn-/-Dark">
                <g transform="translate(0.000000, 112.000000)">
                    <path d="M24,22 L18.6956726,22 L18.6956726,14.2661203 C18.6956726,12.2417878 17.8659454,10.8598322 16.0413923,10.8598322 C14.6458137,10.8598322 13.8697084,11.7924057 13.5084666,12.6911699 C13.3730009,13.013767 13.3941675,13.4631491 13.3941675,13.9125312 L13.3941675,22 L8.1392286,22 C8.1392286,22 8.20696143,8.3001857 8.1392286,7.0548761 L13.3941675,7.0548761 L13.3941675,9.400397 C13.7046096,8.37484792 15.3838194,6.91118653 18.0634995,6.91118653 C21.3880527,6.91118653 24,9.06089518 24,13.6899533 L24,22 L24,22 Z M2.82502352,5.18550298 L2.7911571,5.18550298 C1.09783631,5.18550298 -2.13162821e-14,4.04303003 -2.13162821e-14,2.59486457 C-2.13162821e-14,1.11852468 1.13029163,-3.55271368e-15 2.85747883,-3.55271368e-15 C4.58325494,-3.55271368e-15 5.64440263,1.11570724 5.67826905,2.59063841 C5.67826905,4.03880387 4.58325494,5.18550298 2.82502352,5.18550298 L2.82502352,5.18550298 L2.82502352,5.18550298 Z M0.605362183,7.0548761 L5.28316087,7.0548761 L5.28316087,22 L0.605362183,22 L0.605362183,7.0548761 L0.605362183,7.0548761 Z" id="LinkedIn"></path>
                </g>
            </g>
        </g>
    </g>
</svg>

<svg xmlns="http://www.w3.org/2000/svg" viewBox="0 0 24 22">
  <title>LinkedIn</title>
  <path fill="#1b1b1c" fill-rule="evenodd" d="M24 22h-5.3043v-7.7339c0-2.0243-.8298-3.4063-2.6543-3.4063-1.3956 0-2.1717.9326-2.533 1.8314-.1354.3226-.1142.772-.1142 1.2213V22h-5.255s.0678-13.6998 0-14.9451h5.255v2.3455c.3104-1.0256 1.9896-2.4892 4.6693-2.4892C21.3881 6.9112 24 9.0609 24 13.69V22zM2.825 5.1855h-.0338C1.0978 5.1855 0 4.043 0 2.5949 0 1.1185 1.1303 0 2.8575 0c1.7258 0 2.7869 1.1157 2.8208 2.5906 0 1.4482-1.095 2.5949-2.8533 2.5949zM.6054 7.0549h4.6778V22H.6054V7.0549z"/>
</svg>
